public/avatar/item1/51.svg

<svg xmlns:xlink="http://www.w3.org/1999/xlink" height="65.4" width="80.15" xmlns="http://www.w3.org/2000/svg"><use height="17" transform="translate(35.7 39.65)" width="22.35" xlink:href="#a"/><defs><g id="a" fill-rule="evenodd"><path d="m6.6 33.8 5.15-6.85 14.7 15.9L6.6 33.8" transform="translate(-4.1 -25.85)"/><path d="M23.8 41 7.95 33.45l3.9-5.15L23.8 41" fill="#fff" transform="translate(-4.1 -25.85)"/><path d="m9.65 33.6 3.2-4.15-.45 1.45q-.3 1.55.6 2.35L23.8 41 9.65 33.6" fill="#c2c0bb" transform="translate(-4.1 -25.85)"/><path d="M15.45 26.15q.3 7.7-8.85 11.2L6.55 35l.25-1.75q.45-2 1.65-3.65 1.95-2.75 4.95-3.15l2.05-.3" transform="translate(-4.1 -25.85)"/><path d="M7.3 36.25q.1-1.85.3-2.8.45-1.8 1.55-3.35 1.75-2.5 5.6-3.2-.65 6.5-7.45 9.35" fill="#ffc032" transform="translate(-4.1 -25.85)"/><path d="m5.8 29.9 1.85-2.55 3.55 2.5q.75.9 0 1.85-.45.6-1.2.7h-.65L5.8 29.9" fill="#442d00" transform="translate(-4.1 -25.85)"/><path d="m10.55 31.4-.95.15L7 29.7l.8-1.15 2.65 1.85q.35.55.1 1" fill="#c27400" transform="translate(-4.1 -25.85)"/><path d="M4.1 28.7q0-2.85 2.85-2.85 2.9 0 2.9 2.85t-2.9 2.85q-2.85 0-2.85-2.85" transform="translate(-4.1 -25.85)"/><path d="M4.85 28.7q0-2.1 2.1-2.1t2.1 2.1q0 2.1-2.1 2.1t-2.1-2.1" fill="#ffc032" transform="translate(-4.1 -25.85)"/><path d="M4.85 28.7q0-2.1 2.1-2.1 1.75 0 2.1 1.7-.5-.9-1.7-.1-.75.5-.95 1.6l-.25.85q-1.3-.5-1.3-1.95" fill="#ffff9a" transform="translate(-4.1 -25.85)"/></g></defs></svg>

<?xml version="1.0" encoding="UTF-8" standalone="no"?>
<svg xmlns:xlink="http://www.w3.org/1999/xlink" height="65.4px" width="80.15px" xmlns="http://www.w3.org/2000/svg">
  <g transform="matrix(1.0, 0.0, 0.0, 1.0, 31.6, 13.8)">
    <use height="17.0" transform="matrix(1.0, 0.0, 0.0, 1.0, 4.1, 25.85)" width="22.35" xlink:href="#shape0"/>
  </g>
  <defs>
    <g id="shape0" transform="matrix(1.0, 0.0, 0.0, 1.0, -4.1, -25.85)">
      <path d="M6.6 33.8 L11.75 26.95 26.45 42.85 6.6 33.8" fill="#000000" fill-rule="evenodd" stroke="none"/>
      <path d="M23.8 41.0 L7.95 33.45 11.85 28.3 23.8 41.0" fill="#ffffff" fill-rule="evenodd" stroke="none"/>
      <path d="M9.65 33.6 L12.85 29.45 12.4 30.9 Q12.1 32.45 13.0 33.25 L23.8 41.0 9.65 33.6" fill="#c2c0bb" fill-rule="evenodd" stroke="none"/>
      <path d="M15.45 26.15 Q15.75 33.85 6.6 37.35 L6.55 35.0 6.8 33.25 Q7.25 31.25 8.45 29.6 10.4 26.85 13.4 26.45 L15.45 26.15" fill="#000000" fill-rule="evenodd" stroke="none"/>
      <path d="M7.3 36.25 Q7.4 34.4 7.6 33.45 8.05 31.65 9.15 30.1 10.9 27.6 14.75 26.9 14.1 33.4 7.3 36.25" fill="#ffc032" fill-rule="evenodd" stroke="none"/>
      <path d="M5.8 29.9 L7.65 27.35 11.2 29.85 Q11.95 30.75 11.2 31.7 10.75 32.3 10.0 32.4 L9.35 32.4 5.8 29.9" fill="#442d00" fill-rule="evenodd" stroke="none"/>
      <path d="M10.55 31.4 L9.6 31.55 7.0 29.7 7.8 28.55 10.45 30.4 Q10.8 30.95 10.55 31.4" fill="#c27400" fill-rule="evenodd" stroke="none"/>
      <path d="M4.1 28.7 Q4.1 25.85 6.95 25.85 9.85 25.85 9.85 28.7 9.85 31.55 6.95 31.55 4.1 31.55 4.1 28.7" fill="#000000" fill-rule="evenodd" stroke="none"/>
      <path d="M4.85 28.7 Q4.85 26.6 6.95 26.6 9.05 26.6 9.05 28.7 9.05 30.8 6.95 30.8 4.85 30.8 4.85 28.7" fill="#ffc032" fill-rule="evenodd" stroke="none"/>
      <path d="M4.85 28.7 Q4.85 26.6 6.95 26.6 8.7 26.6 9.05 28.3 8.55 27.4 7.35 28.2 6.6 28.7 6.4 29.8 L6.15 30.65 Q4.85 30.15 4.85 28.7" fill="#ffff9a" fill-rule="evenodd" stroke="none"/>
    </g>
  </defs>
</svg>
